app/images/icon/icon-svg/inst.svg

<svg width="40" height="40" viewBox="0 0 40 40" fill="none" xmlns="http://www.w3.org/2000/svg">
<path fill-rule="evenodd" clip-rule="evenodd" d="M20 0C8.95599 0 0 8.95599 0 20C0 31.044 8.95599 40 20 40C31.044 40 40 31.044 40 20C40 8.95599 31.044 0 20 0ZM31.4151 24.7348C31.3596 25.9573 31.1652 26.792 30.8813 27.5226C30.2847 29.0652 29.0652 30.2847 27.5226 30.8813C26.7923 31.1652 25.9573 31.3593 24.7351 31.4151C23.5104 31.4709 23.1192 31.4844 20.0003 31.4844C16.8811 31.4844 16.4902 31.4709 15.2652 31.4151C14.043 31.3593 13.208 31.1652 12.4777 30.8813C11.7111 30.593 11.0172 30.141 10.4434 29.5566C9.85931 28.9832 9.40735 28.2889 9.11896 27.5226C8.83514 26.7923 8.64075 25.9573 8.58521 24.7351C8.52875 23.5101 8.51562 23.1189 8.51562 20C8.51562 16.8811 8.52875 16.4899 8.5849 15.2652C8.64044 14.0427 8.83453 13.208 9.11835 12.4774C9.40674 11.7111 9.85901 11.0168 10.4434 10.4434C11.0168 9.85901 11.7111 9.40704 12.4774 9.11865C13.208 8.83484 14.0427 8.64075 15.2652 8.5849C16.4899 8.52905 16.8811 8.51562 20 8.51562C23.1189 8.51562 23.5101 8.52905 24.7348 8.58521C25.9573 8.64075 26.792 8.83484 27.5226 9.11835C28.2889 9.40674 28.9832 9.85901 29.5569 10.4434C30.141 11.0172 30.5933 11.7111 30.8813 12.4774C31.1655 13.208 31.3596 14.0427 31.4154 15.2652C31.4713 16.4899 31.4844 16.8811 31.4844 20C31.4844 23.1189 31.4713 23.5101 31.4151 24.7348ZM28.8952 13.2944C28.7103 12.7934 28.4154 12.34 28.0322 11.9678C27.66 11.5846 27.2069 11.2897 26.7056 11.1048C26.2991 10.9469 25.6884 10.759 24.5636 10.7078C23.3469 10.6523 22.9821 10.6404 19.9016 10.6404C16.8209 10.6404 16.4561 10.652 15.2396 10.7075C14.1148 10.759 13.5038 10.9469 13.0976 11.1048C12.5964 11.2897 12.143 11.5846 11.7711 11.9678C11.3879 12.34 11.093 12.7931 10.9078 13.2944C10.7499 13.7009 10.562 14.3119 10.5108 15.4367C10.4553 16.6531 10.4434 17.0179 10.4434 20.0987C10.4434 23.1791 10.4553 23.5439 10.5108 24.7607C10.562 25.8855 10.7499 26.4962 10.9078 26.9027C11.093 27.4039 11.3876 27.857 11.7708 28.2292C12.143 28.6124 12.5961 28.9073 13.0973 29.0922C13.5038 29.2504 14.1148 29.4383 15.2396 29.4895C16.4561 29.545 16.8206 29.5566 19.9013 29.5566C22.9824 29.5566 23.3472 29.545 24.5633 29.4895C25.6881 29.4383 26.2991 29.2504 26.7056 29.0922C27.7118 28.7041 28.507 27.9088 28.8952 26.9027C29.053 26.4962 29.241 25.8855 29.2925 24.7607C29.348 23.5439 29.3596 23.1791 29.3596 20.0987C29.3596 17.0179 29.348 16.6531 29.2925 15.4367C29.2413 14.3119 29.0534 13.7009 28.8952 13.2944ZM19.9016 26.0225C16.6296 26.0225 13.9772 23.3704 13.9772 20.0983C13.9772 16.8263 16.6296 14.1742 19.9016 14.1742C23.1733 14.1742 25.8258 16.8263 25.8258 20.0983C25.8258 23.3704 23.1733 26.0225 19.9016 26.0225ZM24.6755 13.94C24.6755 14.7046 25.2954 15.3245 26.06 15.3245C26.8246 15.3245 27.4442 14.7046 27.4445 13.94C27.4445 13.1754 26.8246 12.5555 26.06 12.5555C25.2954 12.5555 24.6755 13.1754 24.6755 13.94ZM23.8424 20C23.8424 22.1221 22.1221 23.8424 20 23.8424C17.8779 23.8424 16.1576 22.1221 16.1576 20C16.1576 17.8779 17.8779 16.1577 20 16.1577C22.1221 16.1577 23.8424 17.8779 23.8424 20Z" fill="#C3B9B5"/>
</svg>

<svg width="40" height="40" fill="none" xmlns="http://www.w3.org/2000/svg"><path fill-rule="evenodd" clip-rule="evenodd" d="M20 0C8.956 0 0 8.956 0 20s8.956 20 20 20 20-8.956 20-20S31.044 0 20 0zm11.415 24.735c-.055 1.222-.25 2.057-.534 2.788a5.872 5.872 0 01-3.358 3.358c-.73.284-1.566.478-2.788.534-1.225.056-1.616.07-4.735.07s-3.51-.014-4.735-.07c-1.222-.056-2.057-.25-2.787-.534a5.626 5.626 0 01-2.035-1.324 5.628 5.628 0 01-1.324-2.034c-.284-.73-.478-1.566-.534-2.788-.056-1.225-.07-1.616-.07-4.735s.014-3.51.07-4.735c.055-1.222.25-2.057.533-2.788a5.647 5.647 0 011.325-2.034 5.625 5.625 0 012.034-1.324c.731-.284 1.566-.478 2.788-.534 1.225-.056 1.616-.07 4.735-.07s3.51.014 4.735.07c1.222.056 2.057.25 2.788.533a5.63 5.63 0 012.034 1.325 5.626 5.626 0 011.324 2.034c.285.731.479 1.566.534 2.788.056 1.225.07 1.616.07 4.735s-.014 3.51-.07 4.735zm-2.52-11.44a3.575 3.575 0 00-.863-1.327 3.573 3.573 0 00-1.326-.863c-.407-.158-1.018-.346-2.142-.397-1.217-.056-1.582-.068-4.662-.068-3.081 0-3.446.012-4.662.067-1.125.052-1.736.24-2.142.398a3.57 3.57 0 00-1.327.863 3.577 3.577 0 00-.863 1.326c-.158.407-.346 1.018-.397 2.143-.056 1.216-.068 1.58-.068 4.662 0 3.08.012 3.445.068 4.662.051 1.125.239 1.735.397 2.142.185.5.48.954.863 1.326.372.383.825.678 1.326.863.407.158 1.018.346 2.143.398 1.216.055 1.58.067 4.661.067 3.081 0 3.446-.012 4.662-.067 1.125-.052 1.736-.24 2.143-.398a3.82 3.82 0 002.19-2.19c.157-.406.345-1.017.396-2.141.056-1.217.068-1.582.068-4.662 0-3.081-.012-3.446-.067-4.662-.052-1.125-.24-1.736-.398-2.143zm-8.993 12.728a5.924 5.924 0 11-.001-11.849 5.924 5.924 0 010 11.849zm4.773-12.083a1.385 1.385 0 102.77 0 1.385 1.385 0 00-2.77 0zM23.843 20a3.842 3.842 0 11-7.684 0 3.842 3.842 0 017.684 0z" fill="#C3B9B5"/></svg>
